X:1
T:Ave Verum Corpus
T:Charles Gounod arr. NAMontani and BMarble
T:Ave Verum Corpus
T:Copyright © 2017 by CPDL.  This edition can be fully distributed, duplicated, performed, and recorded.
T:Copyright © 2017 by CPDL.  This edition can be fully distributed, duplicated, performed, and recorded.
T:Copyright © 2017 by CPDL.  This edition can be fully distributed, duplicated, performed, and recorded.
C:Charles Gounod
C:arr. NAMontani and BMarble
Z:Copyright © 2017 by CPDL.  This edition can be fully distributed, duplicated, performed, and recorded.
%%score { ( 1 2 ) | ( 3 4 ) }
L:1/8
Q:1/4=60
M:2/2
K:A
V:1 treble nm="Choir" snm="Choir"
V:2 treble 
V:3 bass 
V:4 bass 
V:1
!pp!!<(! c4 G4!<)! | (B2 A2) (G2 F2) | (E2!<(! F2) (F2!<)! E2) |!>(! D4!>)! C2 z2 |!<(! A4 A4 | %5
w: A- ve,|a- * ve *|ve- * rum _|cor- pus-|na- tum-|
 G2 B2 E2!<)! A2 |!>(! (G4 F3)!>)! F | E6 z2 |!p!!<(! A6!<)! _B2 | (!^!_B2!>(! A2)!>)! A4 | %10
w: de- Ma- ri- a-|Vir- * gi-|ne,-|Ve- re-|pas- * sum,-|
!<(! B6!<)! =c2 | (!^!=c2!>(! B2)!>)! B4 |!<(! c6!<)! d2 |!>(! (!^!d2 c2)!>)!!pp! c2 F2 | %14
w: im- mo-|la- * tum,-|im- mo-|la- * tum in|
"^cresc." [E=G]4 [EG]2 [EG]2 | [E^G]3 [EG] [EG]2 [EG]2 | [^DA]4 [DA]2 [DA]2 | [=DB]3 [DB] [DB]3 z | %18
w: cru- ce pro|ho- mi- ne, in|cru- ce pro|ho\-- mi- ne:|
!p!!<(! =c6!<)! _B2 | (!^!_B2!>(! A2)!>)! A4 |!<(! d6!<)! =c2 | (!^!=c2!>(! B2)!>)! B4 | %22
w: Cu- *|la- * tus-|per- fo-|ra- * tum-|
!ff! e6 d2 |"^allarg." (=c2 B2) A2 =G2 |!>(! (=G4 =F3) F |"^rall." E6!>)! z2 |!pp!!<(! c4 G4!<)! | %27
w: flu- xit|a- * qua et-|san- * gui-||E- sto-|
 (B2 A2) (G2 F2) | (E2!<(! F2) (F2!<)! E2) |!>(! D4!>)! C2 z2 |!<(! c4 G4 | (A2 F2) (G2!<)! A2) | %32
w: no- * bis- *|prae- * gu- *|sta- tum,-|Mor- tis-|in _ ex- *|
!>(! (E4 D3) D | C6!>)! z2 |!pp!!<(! E4 E2 E2!<)! |!>(! F4!>)! E4 | E4!<(! E2!<)! E2 | %37
w: a- * mi-|ne.|O- Je- su-|dul- cis,-|O- Je- su-|
!>(! F4 E4!>)! |!<(! A4 ^G2 F2 | (E2 G2) A2!<)! B2 |!f! (c4 B4) | E4 z2!pp! E2 |!<(! E4 ^E4 | %43
w: pi- e,|* Je- su,-|fi- * li- Ma-|ri- *|ae, O|Je- su|
 (F2 G2) A2!<)! B2 |!>(! (A4!>)! G4) | !fermata!A8 |] %46
w: fi- * li Ma-|ri- *|ae.|
V:2
 E4 D4 | C4 B,4 | (C2 D2) (D2 C2) | B,4 A,2 x2 | C4 ^D4 | E2 B,2 C2 F2 | (E4 ^D3) D | E6 x2 | %8
w: ||||||||
w: ||||||||
 C6 C2 | C4 D4 | ^D6 D2 | ^D4 E4 | ^E6 E2 | ^E4 F2 C2 | x8 | x8 | x8 | x7 x | (E2 =G2) (E2 D2) | %19
w: ||||||||||* * jus _|
w: |||||||||||
 (D2 ^C2) C4 | (D2 A2) (F2 E2) | (E2 ^D2) D4 | E4 =F4 | (E2 D2) =C2 _B,2 | (A,2 D2-) D3 D | %25
w: _ _ _||||||
w: ||||||
 (B,4 E2 D2) | C4 D4 | C4 B,4 | (C2 D2) (D2 C2) | B,4 A,2 x2 | (A,2 C2) (E2 D2) | %31
w: ne. _ _|_ _|||||
w: ||||||
 (C2 B,2) (B,2 C2) | (C2 B,2-) B,3 B, | (G,4 C2) x2 | D4 D2 D2 | C4 C4 | D4 D2 D2 | %37
w: ||||||
w: ||||||
 (D2 C2) (B,2 A,2) | (A,2 D2) E2 D2 | (C2 D2) E2 F2 | (E4 ^D4) | =D4 x2 D2 | C4 C4 | C4 C2 D2 | %44
w: |O _ _ _|_ _ _ _|||||
w: |||||mi- se-|re- * re|
 (C4 B,4) | !fermata!C8 |] %46
w: ||
w: no- *|bis.|
V:3
!pp! A,4 E,4 | E,4 F,4 | A,4 G,4 | E,4 E,2 z2 | F,4 F,4 | E,2 E,2 E,2 C2 | B,4 A,3 A, | %7
 [E,G,]2 [F,A,]2 [G,B,]2 [E,G,]2 |!p! A,2 E,2 F,2 =G,2 | F,2 ^E,2 F,4 | F,4 ^G,2 A,2 | %11
 G,2 ^^F,2 G,4 | G,4 A,2 B,2 | ^A,2 ^^G,2!pp! A,2 C2 |"^cresc." C4 C2 C2 | C3 C C2 C2 | C4 C2 A,2 | %17
 A,3 ^G, G,3 z | =G,6 G,2 | =G,4 A,4 | A,6 A,2 | A,4 B,4 |!ff! B,4 B,4 | =C2 G,2 A,2 E,2 | %24
 =F,2 A,4 A,2 | A,2 ^G,2 ^F,2 G,2 |!pp! A,4 E,4 | E,4 F,4 | A,4 G,4 | G,4 A,2 z2 | =E,4 E,4 | %31
 E,2 F,2 E,2 A,2 | A,2 G,4 F,2 | F,2 ^D,2 ^E,2 z2 | G,4 G,2 G,2 | =G,4 G,4 | ^G,4 G,2 G,2 | %37
 =G,2 A,2 B,2 C2 | D2 A,2 B,2 F,^G, | A,2 E,2 A,2 A,2 |!f! A,8 | B,4 z2!pp! B,2 | A,4 B,4 | %43
 [F,A,]2 [^E,B,]2 [F,A,]2 [D,F,]2 | E,8 | !fermata!E,8 |] %46
V:4
 A,,4 B,,4 | C,4 D,4 | E,4 E,4 | A,,4 A,,2 x2 | F,,4 B,,4 | C,2 G,,2 A,,2 F,,2 | B,,6 B,,2 | x8 | %8
 A,,6 A,,2 | A,,4 D,2 =C,2 | B,,6 B,,2 | B,,4 E,2 =D,2 | C,6 C,2 | C,2 B,,2 ^A,,2 A,,2 | %14
 =A,,4 A,,2 A,,2 | G,,3 G,, G,,2 G,,2 | F,,4 F,,2 F,2 | =F,3 F, F,3 x | E,6 E,2 | E,4 F,2 =G,2 | %20
 F,4 D,2 F,2 | F,4 =G,2 A,2 | =G,4 ^G,4 | A,2 E,2 =F,2 ^C,2 | D,4 B,,3 B,, | E,2 D,2 C,2 B,,2 | %26
 A,,4 B,,4 | C,4 D,4 | E,4 E,4 | ^E,4 F,2 x2 | C,4 B,,4 | C,2 D,2 D,2 C,2 | B,,4 G,,4 | C,6 x2 | %34
 B,,4 B,,2 B,,2 | ^A,,4 A,,4 | B,,4 B,,2 B,,2 | =A,,4 =G,4 | F,2 F,,2 ^G,,2 A,,B,, | %39
 C,2 B,,2 C,2 D,2 | E,4 F,4 | G,4 x2 G,2 | A,4 G,4 | x8 | x8 | !fermata!A,,8 |] %46

